!!!COM: Palestrina, Giovanni Perluigi da
!!!OPR: Missa Illumina oculos meos
!!!OMD: Sanctus
!!!OTL: Hosanna
**kern	**kern	**kern	**kern	**kern	**kern
*Ibass	*Ibarit	*Itenor	*Itenor	*Icalto	*Icant
!Bassus	!Baritone	!Tenor 2	!Tenor 1	!Altus	!Cantus
*clefF4	*clefF4	*clefGv2	*clefGv2	*clefG2	*clefG2
*k[]	*k[]	*k[]	*k[]	*k[]	*k[]
*E:phr	*E:phr	*E:phr	*E:phr	*E:phr	*E:phr
*M4/2	*M4/2	*M4/2	*M4/2	*M4/2	*M4/2
=82	=82	=82	=82	=82	=82
0r	0E	0r	0r	0B	1r
.	.	.	.	.	[1e
=83	=83	=83	=83	=83	=83
0r	1A	0A	0r	1c	1e]
.	1F	.	.	1d	1a
=84	=84	=84	=84	=84	=84
1r	0E	1B	1r	0e	2.g
.	.	.	.	.	4f
1AA	.	1c#	1E	.	4e
.	.	.	.	.	4d
.	.	.	.	.	2e
=85	=85	=85	=85	=85	=85
1D	1r	0d	1F#	1A	2d
.	.	.	.	.	2a
1BB	1D	.	1G#	1B	1dd
=86	=86	=86	=86	=86	=86
0AA	1E	1r	0A	1c	0cc
.	1F#	2r	.	1A	.
.	.	2A	.	.	.
=87	=87	=87	=87	=87	=87
0GG	0G	2B	1D	1r	0b
.	.	4G	.	.	.
.	.	4A	.	.	.
.	.	4B	1G	1d	.
.	.	4c	.	.	.
.	.	4d	.	.	.
.	.	4B	.	.	.
=88	=88	=88	=88	=88	=88
0r	1r	2.c	1C	1e	1g
.	.	4B	.	.	.
.	[1D	2A	1r	1f#	1a
.	.	[2d	.	.	.
=89	=89	=89	=89	=89	=89
1GG	1D]	4d]	0G	0g	1b
.	.	4c	.	.	.
.	.	4B	.	.	.
.	.	4A	.	.	.
1C	1E	4G	.	.	[1cc
.	.	4F	.	.	.
.	.	4E	.	.	.
.	.	4D	.	.	.
=90	=90	=90	=90	=90	=90
1AA	1F#	1C	1A	1r	1cc]
[1GG	1G	1D	2B	2r	1b
.	.	.	2G	[2d	.
=91	=91	=91	=91	=91	=91
0GG]	2r	1G	2.B	2d]	1.b
.	1G	.	.	2d	.
.	.	.	4c	.	.
.	.	2.B	1d	[1g	.
.	2G	.	.	.	2b
.	.	4c	.	.	.
=92	=92	=92	=92	=92	=92
1r	1G	1d	2B	1g]	1b
.	.	.	2G	.	.
2r	[1D	1d	2A	[1f	[1a
[2D	.	.	[2d	.	.
=93	=93	=93	=93	=93	=93
2D]	1D]	0A	2d]	2f]	0a]
2D	.	.	2d	4e	.
.	.	.	.	4d	.
1D	2r	.	1d	1f	.
.	[2A	.	.	.	.
=94	=94	=94	=94	=94	=94
1AA	2A]	2r	2.c	1e	2r
.	2A	2e	.	.	2a
.	.	.	4d	.	.
2r	1A	2c	2e	2r	2a
[2AA	.	2A	2c	[2e	[2cc
=95	=95	=95	=95	=95	=95
2AA]	[0E	2.c	1A	2e]	4cc]
.	.	.	.	.	4b
2AA	.	.	.	2e	4a
.	.	4B	.	.	4g
1AA	.	1A	1c	1e	1a
=96	=96	=96	=96	=96	=96
0EE	0E]	2.G#	1B	[0e	1b
.	.	4A	.	.	.
.	.	1B	2r	.	2r
.	.	.	2B	.	2g
=97	=97	=97	=97	=97	=97
1E	0r	0r	2B	0e]	2g
.	.	.	2G	.	2e
2E	.	.	2B	.	1g
2C	.	.	2c	.	.
=98	=98	=98	=98	=98	=98
2D	0r	2r	2A	0r	2f
2E	.	2c	2G	.	1e
1F	.	2c	1A	.	.
.	.	2A	.	.	2d
=99	=99	=99	=99	=99	=99
0E	1r	2c	2.G	2r	[0e
.	.	2B	.	2g	.
.	.	.	4A	.	.
.	1E	2.G	1B	2g	.
.	.	.	.	2e	.
.	.	4A	.	.	.
=100	=100	=100	=100	=100	=100
0r	2E	2B	1E	1g	1e]
.	2C	2c	.	.	.
.	2D	2A	2r	2f	1r
.	2E	2G	2c	[2e	.
=101	=101	=101	=101	=101	=101
1r	1F	1A	2c	2e]	1a
.	.	.	2A	2d	.
2r	1E	1r	1c	[1e	2g
2E	.	.	.	.	2e
=102	=102	=102	=102	=102	=102
2E	0r	2r	2B	1e]	2g
2C	.	2e	1A	.	2a
2D	.	2d	.	1r	2f
2E	.	[2c	2G	.	[2e
=103	=103	=103	=103	=103	=103
1F	0r	2c]	1A	1r	2e]
.	.	4B	.	.	2d
.	.	4A	.	.	.
[1E	.	2.G	1B	2r	[1e
.	.	.	.	2e	.
.	.	4A	.	.	.
=104	=104	=104	=104	=104	=104
1E]	2r	2B	0r	1g	0e]
.	2E	2c	.	.	.
2r	1G	[1B	.	2e	.
2E	.	.	.	[2g	.
=105	=105	=105	=105	=105	=105
1G	1E	0B]	0r	4g]	0r
.	.	.	.	4f	.
.	.	.	.	1e	.
2E	2.G	.	.	.	.
[2G	.	.	.	4d	.
.	4A	.	.	4c	.
=106	=106	=106	=106	=106	=106
4G]	2B	0r	0r	2d	1g
4F	.	.	.	.	.
4E	2.c	.	.	1e	.
4D	.	.	.	.	.
2C	.	.	.	.	2g
.	4B	.	.	.	.
2D	2A	.	.	4d	2f
.	.	.	.	4c	.
=107	=107	=107	=107	=107	=107
2E	2G	0r	1r	2B	2e
2F	1A	.	.	2A	2d
1E	.	.	2r	1B	1e
.	2G#	.	2B	.	.
=108	=108	=108	=108	=108	=108
0AA	0A	2r	1c	4A	1e
.	.	.	.	4B	.
.	.	2A	.	4c	.
.	.	.	.	4d	.
.	.	1c	2A	1e	2r
.	.	.	[2c	.	2a
=109	=109	=109	=109	=109	=109
0r	0r	2A	4c]	1e	1cc
.	.	.	4B	.	.
.	.	2.c	4A	.	.
.	.	.	4G	.	.
.	.	.	2.F	1f	2a
.	.	4B	.	.	.
.	.	[2A	.	.	[2cc
.	.	.	4G	.	.
=110	=110	=110	=110	=110	=110
0r	0r	4A]	4A	1c	4cc]
.	.	4G	4B	.	4b
.	.	1F	2c	.	1a
.	.	.	2d	1r	.
.	.	2G	2e	.	4g
.	.	.	.	.	4f
=111	=111	=111	=111	=111	=111
0r	0r	2A	2c	1r	2e
.	.	2B-	1d	.	2d
.	.	1A	.	2r	1e
.	.	.	2c#	2e	.
=112	=112	=112	=112	=112	=112
2r	1r	1D	0d	1f	4d
.	.	.	.	.	4e
2D	.	.	.	.	4f
.	.	.	.	.	4g
1F	1D	1r	.	2d	[1a
.	.	.	.	[2f	.
=113	=113	=113	=113	=113	=113
2D	1F	0r	2r	4f]	0a]
.	.	.	.	4e	.
2.F	.	.	2A	2c	.
.	2D	.	2A	2.d	.
4E	.	.	.	.	.
[2D	[2F	.	2A	.	.
.	.	.	.	4c	.
=114	=114	=114	=114	=114	=114
2D]	2F]	0r	2B	2B	1r
2C	2E	.	2c	1A	.
1BB	1D	.	1d	.	2r
.	.	.	.	2G#	2b
=115	=115	=115	=115	=115	=115
0AA	1E	2r	2.c	0A	1cc
.	.	2A	.	.	.
.	.	.	4d	.	.
.	2r	1c	1e	.	2a
.	[2A	.	.	.	[2cc
=116	=116	=116	=116	=116	=116
0r	4A]	2A	2r	0r	4cc]
.	4G	.	.	.	4b
.	2.F	2.c	2A	.	1a
.	.	.	1c	.	.
.	4E	4d	.	.	.
.	2C	2e	.	.	2g
=117	=117	=117	=117	=117	=117
0r	2D	2d	2A	0r	2f
.	2E	2G	2.c	.	1e
.	1F	1A	.	.	.
.	.	.	4B	.	.
.	.	.	[2A	.	2d
=118	=118	=118	=118	=118	=118
1r	[0E	1B	2A]	2r	0e
.	.	.	2G#	2B	.
1AA	.	4A	1A	1c	.
.	.	4B	.	.	.
.	.	4c	.	.	.
.	.	4d	.	.	.
=119	=119	=119	=119	=119	=119
1C	1E_	1e	2r	2G	2r
.	.	.	2G	2.c	2e
2AA	1E_	2r	2.c	.	2a
.	.	.	.	4d	.
[2C	.	2c	.	[2e	2g
.	.	.	8B	.	.
.	.	.	8A	.	.
=120	=120	=120	=120	=120	=120
4C]	0E]	2c	2G	2e]	1.cc
4BB	.	.	.	.	.
1AA	.	2c	2A	2e	.
.	.	2A	2E	[1e	.
2GG#	.	2B	2e	.	2b
=121	=121	=121	=121	=121	=121
0AA	[0E	4c	4e	0e]	0a
.	.	4B	4d	.	.
.	.	4A	4c	.	.
.	.	4G#	4B	.	.
.	.	1A	1c	.	.
=122	=122	=122	=122	=122	=122
0EE	0E]	0G#	0B	0e	0b
==	==	==	==	==	==
*-	*-	*-	*-	*-	*-
!!!CDT: 1525/^1526/-1594/2/2
!!!OCY: Italia
!!!AGN: Mass (Parody)
!!!AST: renaissance, vocal
!!!ASW: Motet (Silva)
!!!PWK: Masses, Book 10
!!!RNB: Cadence finals: G,C,A
!!!YOR: Le Opere Complete, v. 27, p. 155
!!!YOO: Rome, Italy: Fratelli Scalera
!!!END: 1992//
!!!EED: John Miller
!!!YEC: Copyright 2000, John Miller
!!!YEN: United States of America
!!!YEM: Rights to all derivative electronic formats reserved.
!!!YEM: Refer to licensing agreement for further details.
!!!YEM: This file must be accompanied by the licensing agreement.
!!!YEM: A copy of the licensing agreement may be found at http://www.music-cog.ohio-state.edu/HumdrumDatabases/Palestrina/license.txt
!!!EMD: converted to Humdrum by Bret Aarden
